svgs/canva.svg

<svg width="24" height="24" viewBox="0 0 24 24" fill="none" xmlns="http://www.w3.org/2000/svg">
<path d="M18.717 16.789C18.6599 16.8996 18.512 17.1762 18.3089 17.381C17.4852 18.4644 16.4121 19.6051 14.9917 20.4649C13.6269 21.3199 12.0426 22 10.1508 22C8.37967 22 6.9253 21.1153 6.12633 20.3852L6.12515 20.3841L6.12399 20.383C4.91596 19.2546 4.27354 17.6498 4.0763 16.1598L4.07615 16.1587C3.78071 13.8548 4.35977 11.2015 5.55529 8.80578C6.75103 6.40964 8.57746 4.24306 10.8102 2.92724C11.8612 2.29344 13.0137 2 14.118 2C16.3637 2 18.0727 3.54731 18.2812 5.469C18.382 6.30629 18.2699 7.10112 17.8773 7.80901C17.4849 8.5167 16.8259 9.11265 15.8771 9.57562C15.4058 9.81709 15.022 9.93884 14.7194 9.96693C14.4275 9.99403 14.1412 9.93678 13.9788 9.72568L13.9739 9.71933L13.9694 9.71272C13.7674 9.41732 13.8968 9.02494 14.1745 8.81745C14.9769 8.16837 15.3637 7.59697 15.5395 7.02075C15.7181 6.43521 15.6902 5.81106 15.5954 5.02437C15.4638 4.09056 14.8784 3.59709 14.3092 3.59709C13.5882 3.59709 12.738 3.99683 11.8579 4.73744C10.9851 5.47189 10.1182 6.51239 9.36839 7.72193C7.8641 10.1485 6.86838 13.1929 7.19182 15.715L7.19202 15.7166L7.19221 15.7182C7.30708 16.7035 7.67431 17.756 8.32011 18.5552C8.95958 19.3465 9.8706 19.8904 11.1068 19.8904C11.9174 19.8904 12.8264 19.6698 13.5983 19.2714L13.6 19.2705L13.6017 19.2697C14.5255 18.8079 15.173 18.4231 15.7225 17.9767C16.2706 17.5315 16.7321 17.0162 17.2733 16.2824L17.275 16.28L17.2768 16.2777C17.3427 16.192 17.4098 16.0941 17.4825 15.9878L17.4849 15.9843C17.5506 15.8883 17.621 15.7853 17.6927 15.6907C17.8642 15.3854 18.1835 15.3246 18.3719 15.3246C18.6774 15.3246 19 15.5925 19 15.9834C19 16.1631 18.944 16.4975 18.717 16.789Z" fill="white"/>
</svg>

<svg xmlns="http://www.w3.org/2000/svg" viewBox="0 0 24 24"><path d="M18.717 16.789c-.057.11-.205.387-.408.592-.824 1.083-1.897 2.224-3.317 3.084C13.627 21.32 12.042 22 10.15 22c-1.771 0-3.226-.885-4.025-1.615l-.002-.002c-1.208-1.128-1.85-2.733-2.048-4.223v-.001c-.295-2.304.284-4.957 1.48-7.353C6.75 6.41 8.576 4.243 10.81 2.927A6.41 6.41 0 0 1 14.118 2c2.246 0 3.955 1.547 4.163 3.469.101.837-.011 1.632-.404 2.34-.392.708-1.051 1.304-2 1.767-.471.241-.855.363-1.158.39-.291.028-.578-.03-.74-.24l-.005-.007-.005-.006c-.202-.296-.072-.688.206-.896.802-.649 1.189-1.22 1.364-1.796.18-.586.151-1.21.056-1.997-.131-.933-.717-1.427-1.286-1.427-.72 0-1.571.4-2.451 1.14-.873.735-1.74 1.775-2.49 2.985-1.504 2.427-2.5 5.47-2.176 7.993v.003c.115.985.482 2.038 1.128 2.837.64.791 1.55 1.335 2.787 1.335.81 0 1.72-.22 2.491-.619h.002l.002-.001c.923-.462 1.571-.847 2.12-1.293.549-.445 1.01-.96 1.551-1.695l.002-.002.002-.002c.066-.086.133-.184.206-.29l.002-.004c.066-.096.136-.199.208-.293.171-.306.49-.366.679-.366.305 0 .628.268.628.658 0 .18-.056.514-.283.806"/></svg>
